!!!OTL: LUSTIG IHR LEUTE SOLDATEN SIND DA
!!!ARE: Europa, Mitteleuropa, Deutschland
!!!SCT: F0612
!!!YEM: Copyright 1995, estate of Helmut Schaffrath.
**kern
*ICvox
*Ivox
*M3/4
*k[]
*C:
=1
{4.G
8E
4G
=2
4.c
8d}
{4e
=3
4d
4g
4g
=4
4c
4e}
{4e
=5
4d
4g
4B
=6
2c
4r}
=7
{4.G
8E
4G
=8
4.c
8d}
{4e
=9
4d
4g
4g
=10
4c
4e}
{4e
=11
4d
4g
4B
=12
2c
4r}
=13
{4G
4G
4c
=14
4.A
8A
4A}
=15
{4A
4B
4c
=16
4.d
8e
4d}
=17
{8c
8B
8A
8G
4G
=18
4.c
8d}
{4e
=19
4d
4g
4g
=20
4c
4e}
{4e
=21
4d
4g
4B
=22
2c
4r}
==
!!!AGN: Soldaten - Lied
!!!ONB: ESAC (Essen Associative Code) Database: FINK
!!!AMT: simple triple
!!!AIN: vox
!!!EED: Helmut Schaffrath
!!!EEV: 1.0
*-
